X:1
T:Minuet. SenH.130, A
T:Minuet. SenH.130, A
T:in Hand C
C:in Hand C
L:1/8
Q:1/4=100
M:3/4
K:C
V:1 treble 
V:1
 c4 d2 | c2 ef g2 | eceg c'2 | b2 ab g2 | e2 cege | d2 Bdgd | e2 cdef | g6 || g4 a2 | g2 ab c'2 | %10
 c'd'e'd'c'd' | b2 ab g2 | f4 a2 | g2 fg e2 | defedc | B2 AB G2 | c4 d2 | c2 ef g2 | g4 a2 | %19
 g2 ab c'2 | c'2 e'c' g2 | a2 c'a f2 | d2 d'2 b2 | c'4 |] %24

